X:15
T:Ronde
R:
C:Tielman Susato
H:
N:17
B:
O:Flandres
A:
Z:<eric.forgeot@caramail.com> -- http://anamnese.fr.st
M:C
L:1/8
Q:1/4=110
K:F
F2 c2 ABcd | cBAG A2 F2 | F2 c2 ABcd | cBAG F4 ::
F2 FG ABcA | B4G4 | F2F2E2E2 | F2E2D2C2 |
C2 G2 G2B2 | A2G2F2B2 | A2G2F2 GF | (ED)FE F4 :|]

